!!!!SEGMENT: Fss3005-Ben_mi_credea_passar.krn
!!!id: Fss3005
!!!AGN: Frottola
!!!voices: 4
!!!COM: Sebastiano Festa
!!!OTL: Ben mi credea passar
**kern	**kern	**kern	**kern
*part4	*part3	*part2	*part1
*staff4	*staff3	*staff2	*staff1
*I"Bassus	*I"Tenor	*I"Altus	*I"Superius
*I'B	*I'T	*I'A	*I'S
*clefF4	*clefGv2	*clefGv2	*clefG2
*k[]	*k[]	*k[]	*k[]
*C:	*C:	*C:	*C:
*M2/1	*M2/1	*M2/1	*M2/1
*met(C|)	*met(C|)	*met(C|)	*met(C|)
=1	=1	=1	=1
0r	0f	0r	0a
=2	=2	=2	=2
0r	1e	0r	1g
.	1d	.	1f
=3	=3	=3	=3
0AA	0c	0A	0e
=4	=4	=4	=4
1C	0r	1G	0r
1D	.	1F	.
=5	=5	=5	=5
1AA	2r	1E	2r
.	2c	.	2e
1r	2d	1r	2f
.	2e	.	2g
=6	=6	=6	=6
0r	0f	0r	0a
=7	=7	=7	=7
2r	1e	2r	1g
2C	.	2c	.
2.D	2d	2.A	2f
.	2d	.	2f
4E	.	4G	.
=8	=8	=8	=8
0F	0r	2.A	0r
.	.	4B	.
.	.	4c	.
.	.	4A	.
.	.	[2d	.
=9	=9	=9	=9
1E	1r	2d]	1r
.	.	2c#i	.
2D	2r	2d	2r
2D	2d	2d	2f
=10	=10	=10	=10
0r	2c	0r	2e
.	2d	.	2f
.	2e	.	2g
.	2f	.	2a
=11	=11	=11	=11
0r	0f	0r	0a
=12	=12	=12	=12
0r	1e	0r	1g
.	2d	.	2.f
.	[2f	.	.
.	.	.	4e
=13	=13	=13	=13
0r	4f]	0r	2d
.	4e	.	.
.	1d	.	2f
.	.	.	1e
.	2c#i	.	.
=14	=14	=14	=14
2r	2d	2r	1d
2D	2A	2d	.
2E	2G	2c	1r
2F	2A	2d	.
=15	=15	=15	=15
2G	2B	2e	0r
2A	2c	2e	.
[1A	[1c	[1f	.
=16	=16	=16	=16
1A]	1c]	1f]	0r
1G	1B	1e	.
=17	=17	=17	=17
2.F	1.A	2d	0r
.	.	2.f	.
4E	.	.	.
2D	.	.	.
.	.	4e	.
2F	2A	[2d	.
=18	=18	=18	=18
1E	1G	2d]	1r
.	.	2c#i	.
1D	1A	1d	[1f
=19	=19	=19	=19
1F	1A	1c	1f]
1C	1G	1c	1e
=20	=20	=20	=20
1D	1F	1A	1d
2AA	2E	2A	2c
2AA	2E	2A	2c
=21	=21	=21	=21
1D	1F	1A	1d
1AA	2E	2A	1c
.	[2A	2e	.
=22	=22	=22	=22
1E	2A]	1e	1B
.	4G	.	.
.	4F	.	.
1E	4G	1e	1B
.	2A	.	.
.	4G#i	.	.
=23	=23	=23	=23
2AA	1A	2c	2A
2AA	.	2c	2A
1C	2r	1c	2r
.	2G	.	2e
=24	=24	=24	=24
2.C	2.E	2.c	2.g
4C	4F	4c	4f
2C	2G	2c	2e
2FF	2A	2c	2f
=25	=25	=25	=25
2GG	2B	2G	2d
2C	2c	2G	2e
2D	4A	2F	2f
.	4B	.	.
2C	[2c	2G	2e
=26	=26	=26	=26
0GG	2c]	0G	0d
.	4B	.	.
.	4A	.	.
.	4B	.	.
.	2c	.	.
.	4B	.	.
=27	=27	=27	=27
2C	2c	2E	1c
2FF	2A	2F	.
2C	2E	2G	2c
2FF	[2F	2A	[2c
=28	=28	=28	=28
0GG	4F]	0G	2c]
.	4E	.	.
.	4D	.	4B
.	4C	.	4A
.	2D	.	2B
.	2D	.	2B
=29	=29	=29	=29
1C	2C	1G	2c
.	2C	.	2c
[1C	[1e	[1c	[1g
=30	=30	=30	=30
1C]	1e]	1c]	1g]
2D	2d	2A	2f
2AA	2c	2A	2e
=31	=31	=31	=31
2D	2d	2A	2f
2D	2d	2A	2f
2AA	2c	2A	2e
2AA	2c	2A	2e
=32	=32	=32	=32
0F	0f	0c	0a
=33	=33	=33	=33
1C	1e	1c	1g
1D	1d	1A	1f
=34	=34	=34	=34
1AA	1c	1A	1e
1AA	2r	1A	2r
.	2c	.	2e
=35	=35	=35	=35
2D	2d	2A	2f
2C	2e	2c	2g
[1F	2f	2.c	[1a
.	4e	.	.
.	4d	4B	.
=36	=36	=36	=36
1F]	2c	4A	1a]
.	.	4G	.
.	1d	2F	.
1E	.	1G	1g
.	2c#i	.	.
=37	=37	=37	=37
2D	2d	2A	2f
2D	2d	2A	2f
2r	2r	1A	2r
2AA	2c	.	2e
=38	=38	=38	=38
2D	2d	2A	2f
2C	2e	2c	2g
[1F	2f	2.c	[1a
.	4e	.	.
.	4d	4B	.
=39	=39	=39	=39
1F]	2c	4A	1a]
.	.	4G	.
.	1d	2F	.
1E	.	1G	1g
.	2c#i	.	.
=40	=40	=40	=40
2D	2d	2A	2f
2D	2d	2A	2f
1C	1e	1c	2r
.	.	.	2g
=41	=41	=41	=41
2.C	2.c	2G	2.e
.	.	2G	.
4C	4d	.	4f
2C	2e	2c	2g
2C	2c	2G	2e
=42	=42	=42	=42
2D	2A	2F	2f
2GG	2B-X	2G	2d
2BB-X	2F	2D	2d
2BB-i	2G	2D	2d
=43	=43	=43	=43
2AA	2A	2E	2c
2AA	2A	2E	2c
2r	2r	2r	2r
2C	2c	2G	2e
=44	=44	=44	=44
2D	2A	2F	2f
2GG	2B-X	2G	2d
2BB-i	2F	2D	2d
2BB-i	2G	2D	2d
=45	=45	=45	=45
2AA	2A	2E	2c
2AA	2A	2E	2c
1AA	1E	1A	2r
.	.	.	2e
=46	=46	=46	=46
2BB-X	2.D	2F	2.f
2BB-i	.	2D	.
.	4E	.	4e
2BB-i	2F	2D	2d
2AA	2F	2A	2c
=47	=47	=47	=47
1GG	1.G	1D	2.B
.	.	.	4A
1GG	.	1D	4B
.	.	.	4c
.	2F	.	[2d
=48	=48	=48	=48
2AA	2E	2A	2d]
2AA	2E	2A	2c#i
2D	2D	2A	2d
2D	2D	2A	2d
=49	=49	=49	=49
2r	2r	2r	2r
2D	2d	2A	2f
2.C	2.e	2.c	2.g
4D	4d	4A	4f
=50	=50	=50	=50
2AA	2d	2A	2e
2AA	2c#i	2A	2e
1D	2d	2A	2d
.	2d	2A	2d
=51	=51	=51	=51
2D	2r	2r	1f
2D	2d	2A	.
2C	2e	2c	2g
2F	2f	2c	2a
=52	=52	=52	=52
2F	2f	2c	2a
2F	2.f	2c	2a
[1F	.	4f	[1a
.	4e	4e	.
.	4d	4d	.
.	4c	4c	.
=53	=53	=53	=53
1F]	4f	2.f	1a]
.	4e	.	.
.	4d	.	.
.	4c	4e	.
2G	2B-X	2d	4b-X
.	.	.	4a
2C	2c	2e	[2g
=54	=54	=54	=54
0D	1A	1d	2g]
.	.	.	4f#i
.	.	.	4e
.	1A	1d	2f#i
.	.	.	2g
=55	=55	=55	=55
2GG	2G	2B	2g
2GG	2G	2B	2g
1GG	1B	2.d	2r
.	.	.	2G
.	.	4e	.
=56	=56	=56	=56
2FF	2A	2f	2c
2GG	2G	2d	2B
2D	2G	2d	2A
2D	2F#i	2d	2A
=57	=57	=57	=57
1GG	1.G	1d	4G
.	.	.	4A
.	.	.	4B
.	.	.	4c
1GG	.	1B	4d
.	.	.	4B
.	2F	.	4c
.	.	.	4d
=58	=58	=58	=58
2AA	2E	2A	2c
2AA	2D	2A	2d
1AA	1E	1A	2d
.	.	.	2c#i
=59	=59	=59	=59
1D	2D	1A	4d
.	.	.	4e
.	1d	.	4f
.	.	.	4g
1D	.	1f	4a
.	.	.	4f
.	2c	.	4g
.	.	.	4a
=60	=60	=60	=60
2E	2B	2e	2g
2E	2A	2e	2a
1E	1B	1e	2a
.	.	.	2g#i
=61	=61	=61	=61
1AA	4A	1c	2a
.	4B	.	.
.	2c	.	4A
.	.	.	4B
1AA	4A	1c	4c
.	4B	.	4d
.	4c	.	4e
.	4A	.	4f
=62	=62	=62	=62
2GG	2B	2d	4g
.	.	.	4e
2GG	4A	2d	4f
.	4G	.	4g
1D	1A	1d	4f
.	.	.	2g
.	.	.	4f#i
=63	=63	=63	=63
1GG	1.G	1B	2g
.	.	.	4G
.	.	.	4A
1GG	.	1B	4B
.	.	.	4c
.	2F	.	4d
.	.	.	4B
=64	=64	=64	=64
2AA	2E	2A	2c
2BB	2D	2G	2d
1AA	1E	1A	2d
.	.	.	2c#i
=65	=65	=65	=65
2r	2r	2r	0d
2D	2D	2F	.
[1GG	2.G	1B-X	.
.	4A	.	.
=66	=66	=66	=66
2GG]	2B-X	2G	[0dl
2FF	2A	2A	.
[1GG	[1G	[1B-i	.
=67	=67	=67	=67
1GG]	1G]	1B-]	0d_
[1DDl	[1Fl	[1Al	.
=68	=68	=68	=68
00DD]	00F]	00A]	00d]
==	==	==	==
*-	*-	*-	*-
!!!system-decoration: [*]
!!!RDF**kern: i = editorial accidental
!!!RDF**kern: l = terminal long
!!!ENC: Benjamin Ory
!!!END: 2024/10/29
!!!EED: Benjamin Ory
!!!EEV: 2024/10/29
!!!YEC: Copyright 2024 Benjamin Ory, All Rights Reserved
!!!ONB: Translated from MusicXML on 2024/10/29